X:1
T:Valley of Rest
T:Valley of Rest
T:William James Kirkpatrick
T:Frances Jane (Fanny) Crosby, 1888
T:Public Domain Courtesy of the Cyber Hymnal™
T:Public Domain Courtesy of the Cyber Hymnal™
C:William James Kirkpatrick
Z:Public Domain
Z:Courtesy of the Cyber Hymnal™
%%score ( 1 2 ) ( 3 4 )
L:1/8
Q:1/4=125
M:6/4
K:Bb
V:1 treble 
V:2 treble 
V:3 bass 
V:4 bass 
V:1
 [DF]3 [EG] [DF]2 [B,D]2 [DF]2 [DB]2 | [Fd]4 [DB]2 [DF]4 z2 | [EG]2 [GB]2 [EG]2 [DF]4 z2 | %3
w: 1.~Val- ley of E- den, be-|yond the sea,|Ha- ven of rest,|
w: 2.~Val- ley of E- den, the|soul’s dear home,|Bright are thy hills,|
w: 3.~Val- ley of E- den, be-|yond the sea,|Love- ly thy bow-|
 [FB]2 [EA]2 [DB]2 [Ec]4 z2 | [DF]3 [EG] [DF]2 [B,D]2 [DF]2 [DB]2 | [Fd]4 [DB]2 [DF]4 z2 | %6
w: tran- quil and blest,|An- chored for- ev- er we|soon shall be,|
w: peace- ful thy rills;|Hap- py for- ev- er we|soon shall roam|
w: ers, fade- less thy|flowers; Val- ley of E- den,|we dream of|
 [EG]3 [EB] [EB]2 [DB]2 [CA]2 [Ec]2 | [DB]6- [DB]4 z2 | [EB]3 [EB] [EB]2 [Ec]2 [EB]2 [EG]2 | %9
w: Ga- thered with Je- sus to|rest; *|Songs of the ran- somed are|
w: O- ver thy bright bloom- ing|hills; *|Thine are the beau- ties that|
w: thee, Dream of thy beau- ti-|ful *|bowers. Friends that were part- ed|
 [DF]2 [DF]2 [DB]2 [Fd]4 z2 | [Gd]3 [Ec] [DB]2 [Gd]3 [Ec] [DB]2 | [=Ed]3 [Ec] [EB]2 [_Ec]4 z2 | %12
w: float- ing in air,|Waft- ed to earth from thy|re- gion so fair;|
w: ne- ver de- cay,|Thine is a light of a|sha- dow- less day;|
w: with rap- ture shall|meet, Cast- ing their crowns at|Im- man- uel’s feet:|
 [Fd]3 [Ec] [DB]2 [DF]2 [DB]2 [Fd]2 | [_Af]3 [Ge] [Ge]2 [Ge]6 | %14
w: An- gels are ten- der- ly|call- ing us there,|
w: Voic- es of loved ones are|call- ing a- way,|
w: Still the glad voic- es of|an- gels re- peat,|
 [Fd]3 [Ec] [DB]2 [Ec]2 [EG]2 [EA]2 | [DB]6- [DB]4 z2 ||"^Refrain" [DF]2 z4 [DF]2 z4 | %17
w: Call- ing the wea- ry to|rest. *||
w: Home to thy bright bloom- ing|hills. *|Come, come,|
w: “Come to the val- ley of|flowers.” *||
 F2 z4 [DB]4 z2 | [EB]3 [EB] [EB]2 [=EB]2 [EA]2 [EB]2 | c12 A6 | [DF]2 z4 [DF]2 z4 | %21
w: ||||
w: come, come,|Wea- ry and sor- row op-|pressed; Come,|* come,|
w: ||||
 [_AB]2 z4 !fermata![GB]6 x | [FB]3 [EB] [DB]2 [EA]2 [EB]2 [Ec]2 | [DB]3 [DF] [EG]2 [DF]4 z2 |] %24
w: |||
w: come, come,|Come to this val- ley, this|val- ley of rest.|
w: |||
V:2
 x12 | x12 | x12 | x12 | x12 | x12 | x12 | x12 | x12 | x12 | x12 | x12 | x12 | x12 | x12 | x12 || %16
 x12 | x12 | x12 | F4 G2 x12 | x12 | x13 | x12 | x12 |] %24
V:3
 [B,,B,]3 [B,,B,] [B,,B,]2 [B,,F,]2 [B,,B,]2 [B,,B,]2 | [B,,B,]4 [B,,F,]2 [B,,B,]4 z2 | %2
w: ~ ~ ~ ~ ~ ~|~ ~ ~|
 [E,B,]2 [E,B,]2 [E,B,]2 [B,,B,]4 z2 | [D,F,]2 [C,F,]2 [B,,F,]2 [F,A,]4 z2 | %4
w: ~ ~ ~ ~|~ ~ ~ ~|
 B,3 B, B,2 [B,,F,]2 [B,,B,]2 [B,,B,]2 | [B,,B,]4 [B,,F,]2 [B,,B,]4 z2 | %6
w: ~ ~ ~ ~ ~ ~|~ ~ ~|
 [E,B,]3 [E,G,] [E,G,]2 F,2 F,2 F,2 | [B,,F,]6- [B,,F,]4 z2 | %8
w: ~ ~ ~ ~ ~ ~|~ *|
 [E,G,]3 [E,G,] [E,G,]2 [E,G,]2 [E,G,]2 [E,B,]2 | [B,,B,]2 [B,,B,]2 [B,,F,]2 [B,,B,]4 z2 | %10
w: ~ ~ ~ ~ ~ ~|~ ~ ~ ~|
 [G,B,]3 [G,B,] [G,B,]2 [G,B,]3 [G,B,] [G,B,]2 | [C,B,]3 [C,A,] [C,G,]2 [F,A,]4 z2 | %12
w: ~ ~ ~ ~ ~ ~|~ ~ ~ ~|
 [B,,B,]3 [B,,F,] [B,,F,]2 [B,,B,]2 [B,,B,]2 [B,,B,]2 | [D,B,]3 [E,B,] [E,B,]2 [E,B,]6 | %14
w: ~ ~ ~ ~ ~ ~~|~ ~ ~ ~|
 [F,B,]3 [F,B,] [F,B,]2 [F,A,]2 [F,B,]2 [F,C]2 | [B,,B,]6- [B,,B,]4 z2 || %16
w: ~ ~ ~ ~ ~ ~|~ *|
 [B,,F,]2 z G, F,2 [B,,D,]2 F,2 B,2 | D4 z2 [B,,F,]4 z2 | %18
w: Come to this val- ley of|E- den|
 [E,G,]3 [E,G,] [E,G,]2 [C,G,]2 [C,C]2 [C,B,]2 | (A,4 B,2 C6) x6 | D3 z B,2 [B,,F,]2 B,2 D2 | %21
w: fair, ~ ~ ~ ~ ~|~ * *|~ An- gels are ten-|
 F3 z E E2 !fermata![E,E]6 | [F,D]3 [F,C] [F,B,]2 [F,C]2 [F,G,]2 [F,A,]2 | [B,,B,]6- [B,,B,]4 z2 |] %24
w: der- ly call- ing|us there, Come to this val-|ley *|
V:4
 x12 | x12 | x12 | x12 | B,3 B, B,2 x6 | x12 | x6 F,2 F,2 F,2 | x12 | x12 | x12 | x12 | x12 | x12 | %13
 x12 | x12 | x12 || x12 | B,,2 C2 x8 | x12 | F,12 x6 | B,,2 C x9 | B,,2 x11 | x12 | x12 |] %24

